X: 36687
T: She Hasn't The Thing She Thought She Had
R: slide
M: 12/8
K: Dmajor
|:F2A D2d c2B A2G|F2A DEF E3 EDE|
F2A D2d c2B A2G|FAF GFE D3 D3:|
|:f2e d2c Bcd A3|f2e def e3 ede|
f2e d2c Bcd A2G|F2A GFE D3 D3:|

